svg/transmission.svg

<?xml version="1.0" encoding="UTF-8" standalone="no"?>
<!-- Created with Inkscape (http://www.inkscape.org/) -->
<svg
   xmlns:dc="http://purl.org/dc/elements/1.1/"
   xmlns:cc="http://creativecommons.org/ns#"
   xmlns:rdf="http://www.w3.org/1999/02/22-rdf-syntax-ns#"
   xmlns:svg="http://www.w3.org/2000/svg"
   xmlns="http://www.w3.org/2000/svg"
   xmlns:xlink="http://www.w3.org/1999/xlink"
   xmlns:sodipodi="http://sodipodi.sourceforge.net/DTD/sodipodi-0.dtd"
   xmlns:inkscape="http://www.inkscape.org/namespaces/inkscape"
   width="48px"
   height="48px"
   id="svg5186"
   sodipodi:version="0.32"
   inkscape:version="0.45+devel"
   sodipodi:docname="transmission.svg"
   inkscape:output_extension="org.inkscape.output.svg.inkscape"
   inkscape:export-filename="/home/andreas/project/application icons/48x48/transmission.png"
   inkscape:export-xdpi="90"
   inkscape:export-ydpi="90">
  <defs
     id="defs5188">
    <linearGradient
       inkscape:collect="always"
       id="linearGradient9795">
      <stop
         style="stop-color:#ffffff;stop-opacity:1;"
         offset="0"
         id="stop9797" />
      <stop
         style="stop-color:#ffffff;stop-opacity:0;"
         offset="1"
         id="stop9799" />
    </linearGradient>
    <linearGradient
       inkscape:collect="always"
       id="linearGradient9783">
      <stop
         style="stop-color:#000000;stop-opacity:1;"
         offset="0"
         id="stop9785" />
      <stop
         style="stop-color:#000000;stop-opacity:0;"
         offset="1"
         id="stop9787" />
    </linearGradient>
    <linearGradient
       inkscape:collect="always"
       id="linearGradient9775">
      <stop
         style="stop-color:#f9f9f9;stop-opacity:1"
         offset="0"
         id="stop9777" />
      <stop
         style="stop-color:#eeeeec;stop-opacity:0.62037037"
         offset="1"
         id="stop9779" />
    </linearGradient>
    <linearGradient
       inkscape:collect="always"
       id="linearGradient5948">
      <stop
         style="stop-color:#787b76;stop-opacity:1;"
         offset="0"
         id="stop5950" />
      <stop
         id="stop5956"
         offset="0.87125719"
         style="stop-color:#babcb9;stop-opacity:1" />
      <stop
         style="stop-color:#787b76;stop-opacity:1"
         offset="1"
         id="stop5952" />
    </linearGradient>
    <linearGradient
       inkscape:collect="always"
       id="linearGradient5908">
      <stop
         style="stop-color:#ffffff;stop-opacity:1;"
         offset="0"
         id="stop5910" />
      <stop
         style="stop-color:#ffffff;stop-opacity:0;"
         offset="1"
         id="stop5912" />
    </linearGradient>
    <linearGradient
       inkscape:collect="always"
       id="linearGradient5898">
      <stop
         style="stop-color:#cc0000;stop-opacity:1;"
         offset="0"
         id="stop5900" />
      <stop
         id="stop5906"
         offset="0.36509839"
         style="stop-color:#ef0000;stop-opacity:1" />
      <stop
         style="stop-color:#aa0000;stop-opacity:1"
         offset="1"
         id="stop5902" />
    </linearGradient>
    <linearGradient
       inkscape:collect="always"
       id="linearGradient5871">
      <stop
         style="stop-color:#f0f2ef;stop-opacity:1"
         offset="0"
         id="stop5873" />
      <stop
         style="stop-color:#cdd1c8;stop-opacity:1"
         offset="1"
         id="stop5875" />
    </linearGradient>
    <linearGradient
       inkscape:collect="always"
       id="linearGradient5843">
      <stop
         style="stop-color:#888a85;stop-opacity:1"
         offset="0"
         id="stop5845" />
      <stop
         style="stop-color:#2e3436;stop-opacity:1"
         offset="1"
         id="stop5847" />
    </linearGradient>
    <linearGradient
       inkscape:collect="always"
       id="linearGradient5835">
      <stop
         style="stop-color:#555753;stop-opacity:1;"
         offset="0"
         id="stop5837" />
      <stop
         style="stop-color:#2e3436;stop-opacity:1"
         offset="1"
         id="stop5839" />
    </linearGradient>
    <linearGradient
       inkscape:collect="always"
       id="linearGradient5823">
      <stop
         style="stop-color:#2e3436;stop-opacity:1;"
         offset="0"
         id="stop5825" />
      <stop
         style="stop-color:#2e3436;stop-opacity:0;"
         offset="1"
         id="stop5827" />
    </linearGradient>
    <linearGradient
       inkscape:collect="always"
       id="linearGradient5234">
      <stop
         style="stop-color:#babdb6;stop-opacity:1;"
         offset="0"
         id="stop5236" />
      <stop
         id="stop5242"
         offset="0.13299191"
         style="stop-color:#eeeeec;stop-opacity:1" />
      <stop
         style="stop-color:#babdb6;stop-opacity:1"
         offset="1"
         id="stop5238" />
    </linearGradient>
    <linearGradient
       inkscape:collect="always"
       xlink:href="#linearGradient5234"
       id="linearGradient5240"
       x1="23.738585"
       y1="4.156569"
       x2="23.738585"
       y2="19.46567"
       gradientUnits="userSpaceOnUse" />
    <linearGradient
       inkscape:collect="always"
       xlink:href="#linearGradient5823"
       id="linearGradient5829"
       x1="23.732271"
       y1="30.057167"
       x2="23.688078"
       y2="22.632544"
       gradientUnits="userSpaceOnUse" />
    <linearGradient
       inkscape:collect="always"
       xlink:href="#linearGradient5835"
       id="linearGradient5841"
       x1="23.9375"
       y1="30.616879"
       x2="23.9375"
       y2="36.357994"
       gradientUnits="userSpaceOnUse" />
    <linearGradient
       inkscape:collect="always"
       xlink:href="#linearGradient5843"
       id="linearGradient5849"
       x1="20.771132"
       y1="32.248005"
       x2="20.563131"
       y2="23.939499"
       gradientUnits="userSpaceOnUse" />
    <linearGradient
       inkscape:collect="always"
       xlink:href="#linearGradient5898"
       id="linearGradient5904"
       x1="14.8125"
       y1="5.6244211"
       x2="14.8125"
       y2="9"
       gradientUnits="userSpaceOnUse" />
    <linearGradient
       inkscape:collect="always"
       xlink:href="#linearGradient5908"
       id="linearGradient5914"
       x1="24.040522"
       y1="5.0690055"
       x2="24.040522"
       y2="10.0086"
       gradientUnits="userSpaceOnUse" />
    <linearGradient
       inkscape:collect="always"
       xlink:href="#linearGradient5871"
       id="linearGradient5928"
       x1="13.625"
       y1="33.125"
       x2="14.125"
       y2="24"
       gradientUnits="userSpaceOnUse" />
    <linearGradient
       inkscape:collect="always"
       xlink:href="#linearGradient5948"
       id="linearGradient5954"
       x1="10.1875"
       y1="20.25"
       x2="10.1875"
       y2="42.5"
       gradientUnits="userSpaceOnUse" />
    <filter
       inkscape:collect="always"
       id="filter9771"
       x="-0.02976581"
       width="1.0595316"
       y="-0.13995509"
       height="1.2799102">
      <feGaussianBlur
         inkscape:collect="always"
         stdDeviation="0.5196773"
         id="feGaussianBlur9773" />
    </filter>
    <linearGradient
       inkscape:collect="always"
       xlink:href="#linearGradient9775"
       id="linearGradient9781"
       x1="24.71875"
       y1="35.958694"
       x2="23.936657"
       y2="17.070877"
       gradientUnits="userSpaceOnUse" />
    <linearGradient
       inkscape:collect="always"
       xlink:href="#linearGradient9783"
       id="linearGradient9789"
       x1="18.3125"
       y1="20.743757"
       x2="18.3125"
       y2="21.814325"
       gradientUnits="userSpaceOnUse" />
    <linearGradient
       inkscape:collect="always"
       xlink:href="#linearGradient9795"
       id="linearGradient9801"
       x1="30.4375"
       y1="31.82852"
       x2="29.742416"
       y2="27.45352"
       gradientUnits="userSpaceOnUse" />
  </defs>
  <sodipodi:namedview
     id="base"
     pagecolor="#ffffff"
     bordercolor="#666666"
     borderopacity="1.0"
     inkscape:pageopacity="0.0"
     inkscape:pageshadow="2"
     inkscape:zoom="5.6568542"
     inkscape:cx="30.372474"
     inkscape:cy="21.423534"
     inkscape:current-layer="layer1"
     showgrid="true"
     inkscape:grid-bbox="true"
     inkscape:document-units="px"
     inkscape:window-width="1091"
     inkscape:window-height="777"
     inkscape:window-x="557"
     inkscape:window-y="164">
    <inkscape:grid
       type="xygrid"
       id="grid5195" />
  </sodipodi:namedview>
  <metadata
     id="metadata5191">
    <rdf:RDF>
      <cc:Work
         rdf:about="">
        <dc:format>image/svg+xml</dc:format>
        <dc:type
           rdf:resource="http://purl.org/dc/dcmitype/StillImage" />
      </cc:Work>
    </rdf:RDF>
  </metadata>
  <g
     id="layer1"
     inkscape:label="Layer 1"
     inkscape:groupmode="layer">
    <rect
       style="opacity:0.28240741;fill:#2e3436;fill-opacity:1;stroke:none;stroke-width:1;stroke-linecap:round;stroke-linejoin:round;stroke-miterlimit:4;stroke-dasharray:none;stroke-dashoffset:0;stroke-opacity:1;filter:url(#filter9771)"
       id="rect9761"
       width="41.901279"
       height="8.9116125"
       x="3"
       y="39"
       rx="2.2980971"
       ry="2.2980971" />
    <path
       style="fill:url(#linearGradient5954);fill-rule:evenodd;stroke:#555753;stroke-width:1.00000011999999994px;stroke-linecap:butt;stroke-linejoin:miter;stroke-opacity:1;fill-opacity:1"
       d="M 10,16.59375 C 8.8196081,16.548814 7.6402135,17.571722 7.53125,18.8125 C 6.643292,26.100083 5.3269606,33.403527 4.65625,40.6875 L 4.65625,43.75 C 4.6900093,45.329492 5.7271791,46.392039 6.875,46.59375 L 41.5,46.59375 C 42.479024,46.569246 43.565009,45.89005 43.53125,44.59375 L 43.53125,40.65625 L 40.40625,19.4375 C 40.152431,18.135677 39.039534,16.752716 37.5,16.59375 L 10,16.59375 z"
       id="path5232"
       sodipodi:nodetypes="ccccccccccc" />
    <path
       style="fill:url(#linearGradient5928);fill-opacity:1;fill-rule:evenodd;stroke:#555753;stroke-width:0.99999994000000003px;stroke-linecap:butt;stroke-linejoin:miter;stroke-opacity:1"
       d="M 10.601853,39.624614 C 9.47224,39.502143 8.6733861,38.760954 8.7014295,37.401046 L 10.601853,21.407733 C 10.893931,20.339398 11.586949,19.485349 12.680909,19.488442 L 34.605501,19.488442 C 35.691818,19.455762 36.778134,20.208796 37.062569,21.104687 L 39.478435,37.237611 C 39.535481,38.706714 38.931012,39.557098 37.913093,39.523599 L 10.601853,39.624614 z"
       id="path5230"
       sodipodi:nodetypes="ccccccccc" />
    <path
       style="fill:url(#linearGradient5841);fill-rule:evenodd;stroke:url(#linearGradient5849);stroke-width:1px;stroke-linecap:butt;stroke-linejoin:miter;stroke-opacity:1;fill-opacity:1"
       d="M 20.46875,20.4375 L 18.40625,32.46875 L 15.4375,32.46875 L 23.46875,37.625 L 32.4375,32.46875 L 29.46875,32.46875 L 27.59375,20.4375 L 20.46875,20.4375 z"
       id="path5197"
       sodipodi:nodetypes="cccccccc" />
    <rect
       style="opacity:1;fill:url(#linearGradient5904);fill-opacity:1;stroke:#930000;stroke-width:1.00000011999999994;stroke-linecap:round;stroke-linejoin:round;stroke-miterlimit:4;stroke-dasharray:none;stroke-dashoffset:0;stroke-opacity:1"
       id="rect5224"
       width="31.113209"
       height="6.0609155"
       x="8.4847708"
       y="4.5135489"
       rx="5.0159144"
       ry="1.9854566" />
    <rect
       style="opacity:0.58333333;fill:none;fill-opacity:1;stroke:url(#linearGradient5914);stroke-width:1.00000011999999994;stroke-linecap:round;stroke-linejoin:round;stroke-miterlimit:4;stroke-dasharray:none;stroke-dashoffset:0;stroke-opacity:1"
       id="rect5896"
       width="29.080278"
       height="3.9395947"
       x="9.5003824"
       y="5.5690055"
       rx="1.8339339"
       ry="1.2783499" />
    <path
       style="opacity:0.24537036000000001;fill:none;fill-opacity:1;fill-rule:evenodd;stroke:url(#linearGradient9781);stroke-width:1.00000011999999994px;stroke-linecap:butt;stroke-linejoin:miter;stroke-opacity:1"
       d="M 10.592965,17.57221 C 9.474152,17.53019 8.3562869,18.486727 8.2530054,19.647002 L 5.4687498,39.722803 C 5.4796612,39.847886 5.4997885,39.979699 5.5279893,40.102694 L 5.5279893,42.966491 C 5.559989,44.443503 6.5430497,45.407885 7.6309909,45.596509 L 40.479283,45.596509 C 41.407232,45.573597 42.406944,44.967688 42.374947,43.755497 L 42.374947,40.073472 C 42.382229,40.044972 42.398547,40.013922 42.404566,39.985805 L 42.374947,39.781247 L 42.374947,39.576691 L 42.345327,39.576691 L 39.442592,20.202228 C 39.202015,18.98487 38.147175,17.72086 36.687956,17.57221 L 10.592965,17.57221 z"
       id="path5881" />
    <path
       style="fill:url(#linearGradient9789);fill-rule:evenodd;stroke:none;stroke-width:1px;stroke-linecap:butt;stroke-linejoin:miter;stroke-opacity:1;fill-opacity:1;opacity:0.20833333000000001"
       d="M 10.210155,29.955767 L 12.048004,22 L 36.07815,22.05802 L 37.857941,31.044156 L 36.681164,21.969631 C 36.460193,20.967897 35.929863,20 34.957591,20.025088 L 13.037281,19.980893 C 11.606886,19.936699 11.32554,20.864777 11,21.969631 L 10.210155,29.955767 z"
       id="path5926"
       sodipodi:nodetypes="ccccccccc" />
    <rect
       style="opacity:1;fill:url(#linearGradient5240);fill-opacity:1;stroke:#888a85;stroke-width:1;stroke-linecap:round;stroke-linejoin:round;stroke-miterlimit:4;stroke-dasharray:none;stroke-dashoffset:0;stroke-opacity:1"
       id="rect5226"
       width="7.0964494"
       height="25.970053"
       x="20.48369"
       y="3.6044116"
       rx="1.0763195"
       ry="1.0763192" />
    <rect
       style="opacity:1;fill:url(#linearGradient5829);fill-opacity:1;stroke:none;stroke-width:1;stroke-linecap:round;stroke-linejoin:round;stroke-miterlimit:4;stroke-dasharray:none;stroke-dashoffset:0;stroke-opacity:1"
       id="rect5244"
       width="8.1317272"
       height="8.0433397"
       x="19.975765"
       y="22.013826"
       rx="1.0763195"
       ry="1.0763192" />
    <path
       style="opacity:0.43518521;fill:none;fill-rule:evenodd;stroke:#ffffff;stroke-width:1px;stroke-linecap:round;stroke-linejoin:miter;stroke-opacity:1"
       d="M 11.423372,41.486321 L 39.533811,41.486321"
       id="path5879"
       sodipodi:nodetypes="cc" />
    <rect
       style="opacity:0.22685185;fill:none;fill-opacity:1;stroke:#ffffff;stroke-width:1;stroke-linecap:round;stroke-linejoin:round;stroke-miterlimit:4;stroke-dasharray:none;stroke-dashoffset:0;stroke-opacity:1"
       id="rect5892"
       width="5.151906"
       height="23.93712"
       x="21.428234"
       y="4.6321397"
       rx="1.0763195"
       ry="1.0763192" />
    <g
       id="g5972"
       style="opacity:0.62037037">
      <path
         sodipodi:nodetypes="cc"
         id="path5831"
         d="M 20.4375,30.5 L 27.5,30.5"
         style="fill:none;fill-rule:evenodd;stroke:#888a85;stroke-width:1px;stroke-linecap:round;stroke-linejoin:miter;stroke-opacity:1;opacity:1" />
      <path
         sodipodi:nodetypes="cc"
         id="path5833"
         d="M 19.960998,32.5 L 27.976504,32.5"
         style="fill:none;fill-rule:evenodd;stroke:#888a85;stroke-width:1px;stroke-linecap:round;stroke-linejoin:miter;stroke-opacity:1;opacity:0.68055556" />
      <path
         sodipodi:nodetypes="cc"
         id="path5958"
         d="M 20.273498,31.5 L 27.726504,31.5"
         style="fill:none;fill-rule:evenodd;stroke:#5d5d5c;stroke-width:1px;stroke-linecap:round;stroke-linejoin:miter;stroke-opacity:1;opacity:1" />
      <path
         sodipodi:nodetypes="cc"
         id="path5960"
         d="M 19.869986,33.488738 L 28.141277,33.488738"
         style="fill:none;fill-rule:evenodd;stroke:#5d5d5c;stroke-width:0.99999994000000003px;stroke-linecap:round;stroke-linejoin:miter;stroke-opacity:1;opacity:0.68055556" />
    </g>
    <path
       style="fill:none;fill-rule:evenodd;stroke:#ffffff;stroke-width:1px;stroke-linecap:round;stroke-linejoin:miter;stroke-opacity:1"
       d="M 14.381412,31.513733 L 17.519198,31.513733"
       id="path9791"
       sodipodi:nodetypes="cc" />
    <path
       style="fill:none;fill-rule:evenodd;stroke:#ffffff;stroke-width:1px;stroke-linecap:round;stroke-linejoin:miter;stroke-opacity:1"
       d="M 30.443912,31.451233 L 33.581698,31.451233"
       id="path9803"
       sodipodi:nodetypes="cc" />
    <path
       sodipodi:type="arc"
       style="opacity:0.33500001;fill:#ffffff;fill-opacity:1;stroke:none;stroke-width:1;stroke-linecap:round;stroke-linejoin:round;stroke-miterlimit:4;stroke-dasharray:none;stroke-dashoffset:0;stroke-opacity:1"
       id="path5119"
       sodipodi:cx="9.8553009"
       sodipodi:cy="42.188465"
       sodipodi:rx="1.1932427"
       sodipodi:ry="1.0827572"
       d="M 11.048544,42.188465 A 1.1932427,1.0827572 0 1 1 8.6620582,42.188465 A 1.1932427,1.0827572 0 1 1 11.048544,42.188465 z"
       transform="matrix(0.4216252,0,0,0.4766032,5.3634688,21.39228)" />
  </g>
</svg>

<svg xmlns="http://www.w3.org/2000/svg" xmlns:xlink="http://www.w3.org/1999/xlink" width="48" height="48"><defs><linearGradient id="i"><stop style="stop-color:#000;stop-opacity:1" offset="0"/><stop style="stop-color:#000;stop-opacity:0" offset="1"/></linearGradient><linearGradient id="h"><stop style="stop-color:#f9f9f9;stop-opacity:1" offset="0"/><stop style="stop-color:#eeeeec;stop-opacity:.62037037" offset="1"/></linearGradient><linearGradient id="g"><stop style="stop-color:#787b76;stop-opacity:1" offset="0"/><stop offset=".871" style="stop-color:#babcb9;stop-opacity:1"/><stop style="stop-color:#787b76;stop-opacity:1" offset="1"/></linearGradient><linearGradient id="e"><stop style="stop-color:#fff;stop-opacity:1" offset="0"/><stop style="stop-color:#fff;stop-opacity:0" offset="1"/></linearGradient><linearGradient id="d"><stop style="stop-color:#c00;stop-opacity:1" offset="0"/><stop offset=".365" style="stop-color:#ef0000;stop-opacity:1"/><stop style="stop-color:#a00;stop-opacity:1" offset="1"/></linearGradient><linearGradient id="f"><stop style="stop-color:#f0f2ef;stop-opacity:1" offset="0"/><stop style="stop-color:#cdd1c8;stop-opacity:1" offset="1"/></linearGradient><linearGradient id="c"><stop style="stop-color:#555753;stop-opacity:1" offset="0"/><stop style="stop-color:#2e3436;stop-opacity:1" offset="1"/></linearGradient><linearGradient id="b"><stop style="stop-color:#2e3436;stop-opacity:1" offset="0"/><stop style="stop-color:#2e3436;stop-opacity:0" offset="1"/></linearGradient><linearGradient id="a"><stop style="stop-color:#babdb6;stop-opacity:1" offset="0"/><stop offset=".133" style="stop-color:#eeeeec;stop-opacity:1"/><stop style="stop-color:#babdb6;stop-opacity:1" offset="1"/></linearGradient><linearGradient xlink:href="#a" id="r" x1="23.739" y1="4.157" x2="23.739" y2="19.466" gradientUnits="userSpaceOnUse"/><linearGradient xlink:href="#b" id="s" x1="23.732" y1="30.057" x2="23.688" y2="22.633" gradientUnits="userSpaceOnUse"/><linearGradient xlink:href="#c" id="m" x1="23.938" y1="30.617" x2="23.938" y2="36.358" gradientUnits="userSpaceOnUse"/><linearGradient xlink:href="#d" id="n" x1="14.813" y1="5.624" x2="14.813" y2="9" gradientUnits="userSpaceOnUse"/><linearGradient xlink:href="#e" id="o" x1="24.041" y1="5.069" x2="24.041" y2="10.009" gradientUnits="userSpaceOnUse"/><linearGradient xlink:href="#f" id="l" x1="13.625" y1="33.125" x2="14.125" y2="24" gradientUnits="userSpaceOnUse"/><linearGradient xlink:href="#g" id="k" x1="10.188" y1="20.25" x2="10.188" y2="42.5" gradientUnits="userSpaceOnUse"/><linearGradient xlink:href="#h" id="p" x1="24.719" y1="35.959" x2="23.937" y2="17.071" gradientUnits="userSpaceOnUse"/><linearGradient xlink:href="#i" id="q" x1="18.313" y1="20.744" x2="18.313" y2="21.814" gradientUnits="userSpaceOnUse"/><filter id="j" x="-.03" width="1.06" y="-.14" height="1.28"><feGaussianBlur stdDeviation=".52"/></filter></defs><rect style="opacity:.28240741;fill:#2e3436;fill-opacity:1;stroke:none;stroke-width:1;stroke-linecap:round;stroke-linejoin:round;stroke-miterlimit:4;stroke-dasharray:none;stroke-dashoffset:0;stroke-opacity:1;filter:url(#j)" width="41.901" height="8.912" x="3" y="39" rx="2.298" ry="2.298"/><path style="fill:url(#k);fill-rule:evenodd;stroke:#555753;stroke-width:1.00000011999999994px;stroke-linecap:butt;stroke-linejoin:miter;stroke-opacity:1;fill-opacity:1" d="M10 16.594c-1.18-.045-2.36.978-2.469 2.218-.888 7.288-2.204 14.592-2.875 21.875v3.063c.034 1.58 1.071 2.642 2.219 2.844H41.5c.979-.025 2.065-.704 2.031-2v-3.938l-3.125-21.218c-.254-1.302-1.366-2.685-2.906-2.844H10z"/><path style="fill:url(#l);fill-opacity:1;fill-rule:evenodd;stroke:#555753;stroke-width:.99999994000000003px;stroke-linecap:butt;stroke-linejoin:miter;stroke-opacity:1" d="M10.602 39.625c-1.13-.123-1.929-.864-1.9-2.224l1.9-15.993c.292-1.069.985-1.923 2.079-1.92h21.925c1.086-.032 2.172.72 2.457 1.617l2.415 16.133c.057 1.469-.547 2.32-1.565 2.286l-27.311.1z"/><path style="fill:url(#m);fill-rule:evenodd;stroke:url(#linearGradient5849);stroke-width:1px;stroke-linecap:butt;stroke-linejoin:miter;stroke-opacity:1;fill-opacity:1" d="m20.469 20.438-2.063 12.03h-2.968l8.03 5.157 8.97-5.156h-2.97l-1.874-12.032h-7.125z"/><rect style="opacity:1;fill:url(#n);fill-opacity:1;stroke:#930000;stroke-width:1.00000011999999994;stroke-linecap:round;stroke-linejoin:round;stroke-miterlimit:4;stroke-dasharray:none;stroke-dashoffset:0;stroke-opacity:1" width="31.113" height="6.061" x="8.485" y="4.514" rx="5.016" ry="1.985"/><rect style="opacity:.58333333;fill:none;fill-opacity:1;stroke:url(#o);stroke-width:1.00000011999999994;stroke-linecap:round;stroke-linejoin:round;stroke-miterlimit:4;stroke-dasharray:none;stroke-dashoffset:0;stroke-opacity:1" width="29.08" height="3.94" x="9.5" y="5.569" rx="1.834" ry="1.278"/><path style="opacity:.24537036000000001;fill:none;fill-opacity:1;fill-rule:evenodd;stroke:url(#p);stroke-width:1.00000011999999994px;stroke-linecap:butt;stroke-linejoin:miter;stroke-opacity:1" d="M10.593 17.572c-1.119-.042-2.237.915-2.34 2.075L5.469 39.723c.01.125.03.257.059.38v2.863c.032 1.478 1.015 2.442 2.103 2.63h32.848c.928-.022 1.928-.628 1.896-1.84v-3.683c.007-.028.024-.06.03-.087l-.03-.205v-.204h-.03l-2.902-19.375c-.241-1.217-1.296-2.481-2.755-2.63H10.593z"/><path style="fill:url(#q);fill-rule:evenodd;stroke:none;stroke-width:1px;stroke-linecap:butt;stroke-linejoin:miter;stroke-opacity:1;fill-opacity:1;opacity:.20833333000000001" d="M10.21 29.956 12.048 22l24.03.058 1.78 8.986-1.177-9.074c-.22-1.002-.751-1.97-1.723-1.945l-21.92-.044c-1.431-.044-1.712.884-2.038 1.989l-.79 7.986z"/><rect style="opacity:1;fill:url(#r);fill-opacity:1;stroke:#888a85;stroke-width:1;stroke-linecap:round;stroke-linejoin:round;stroke-miterlimit:4;stroke-dasharray:none;stroke-dashoffset:0;stroke-opacity:1" width="7.096" height="25.97" x="20.484" y="3.604" rx="1.076" ry="1.076"/><rect style="opacity:1;fill:url(#s);fill-opacity:1;stroke:none;stroke-width:1;stroke-linecap:round;stroke-linejoin:round;stroke-miterlimit:4;stroke-dasharray:none;stroke-dashoffset:0;stroke-opacity:1" width="8.132" height="8.043" x="19.976" y="22.014" rx="1.076" ry="1.076"/><path style="opacity:.43518521;fill:none;fill-rule:evenodd;stroke:#fff;stroke-width:1px;stroke-linecap:round;stroke-linejoin:miter;stroke-opacity:1" d="M11.423 41.486h28.11"/><rect style="opacity:.22685185;fill:none;fill-opacity:1;stroke:#fff;stroke-width:1;stroke-linecap:round;stroke-linejoin:round;stroke-miterlimit:4;stroke-dasharray:none;stroke-dashoffset:0;stroke-opacity:1" width="5.152" height="23.937" x="21.428" y="4.632" rx="1.076" ry="1.076"/><g style="opacity:.62037037"><path d="M20.438 30.5H27.5" style="fill:none;fill-rule:evenodd;stroke:#888a85;stroke-width:1px;stroke-linecap:round;stroke-linejoin:miter;stroke-opacity:1;opacity:1"/><path d="M19.961 32.5h8.016" style="fill:none;fill-rule:evenodd;stroke:#888a85;stroke-width:1px;stroke-linecap:round;stroke-linejoin:miter;stroke-opacity:1;opacity:.68055556"/><path d="M20.273 31.5h7.454" style="fill:none;fill-rule:evenodd;stroke:#5d5d5c;stroke-width:1px;stroke-linecap:round;stroke-linejoin:miter;stroke-opacity:1;opacity:1"/><path d="M19.87 33.489h8.271" style="fill:none;fill-rule:evenodd;stroke:#5d5d5c;stroke-width:.99999994000000003px;stroke-linecap:round;stroke-linejoin:miter;stroke-opacity:1;opacity:.68055556"/></g><path style="fill:none;fill-rule:evenodd;stroke:#fff;stroke-width:1px;stroke-linecap:round;stroke-linejoin:miter;stroke-opacity:1" d="M14.381 31.514h3.138m12.925-.063h3.138"/><path style="opacity:.33500001;fill:#fff;fill-opacity:1;stroke:none;stroke-width:1;stroke-linecap:round;stroke-linejoin:round;stroke-miterlimit:4;stroke-dasharray:none;stroke-dashoffset:0;stroke-opacity:1" d="M11.049 42.188a1.193 1.083 0 1 1-2.387 0 1.193 1.083 0 1 1 2.387 0z" transform="matrix(.42163 0 0 .4766 5.363 21.392)"/></svg>
